documentation/public/assets/images/checkbox-dos-and-donts-07.svg

<svg width="236" height="18" viewBox="0 0 236 18" fill="none" xmlns="http://www.w3.org/2000/svg">
<rect x="0.154297" y="2" width="16" height="16" rx="3" fill="#1E71F6"/>
<path d="M11.6342 5.34229C11.8949 4.98299 12.4138 4.89197 12.793 5.13899C13.1722 5.386 13.2683 5.87751 13.0076 6.2368L6.89658 14.6578C6.56259 15.118 5.84355 15.1132 5.51653 14.6485L3.29434 11.4906C3.03905 11.1278 3.14253 10.6376 3.52546 10.3958C3.9084 10.1539 4.42578 10.252 4.68107 10.6147L6.22051 12.8024L11.6342 5.34229Z" fill="white"/>
<path d="M24.1543 4.25586H26.9844C28.2331 4.25586 29.1719 4.44271 29.8008 4.81641C30.4297 5.1901 30.7441 5.82585 30.7441 6.72363C30.7441 7.111 30.6689 7.45964 30.5186 7.76953C30.3727 8.07487 30.1585 8.3278 29.876 8.52832C29.5934 8.72884 29.2448 8.86784 28.8301 8.94531V9.01367C29.2676 9.08203 29.6549 9.20736 29.9922 9.38965C30.3294 9.57194 30.5938 9.82715 30.7852 10.1553C30.9766 10.4834 31.0723 10.9004 31.0723 11.4062C31.0723 12.0215 30.9287 12.541 30.6416 12.9648C30.359 13.3887 29.958 13.71 29.4385 13.9287C28.9189 14.1429 28.3037 14.25 27.5928 14.25H24.1543V4.25586ZM25.3164 8.54199H27.2305C28.1009 8.54199 28.7025 8.39844 29.0352 8.11133C29.3724 7.82422 29.541 7.40495 29.541 6.85352C29.541 6.28385 29.3405 5.8737 28.9395 5.62305C28.543 5.3724 27.9095 5.24707 27.0391 5.24707H25.3164V8.54199ZM25.3164 9.51953V13.2588H27.3945C28.2832 13.2588 28.9121 13.0856 29.2812 12.7393C29.6504 12.3883 29.835 11.9167 29.835 11.3242C29.835 10.946 29.7507 10.6224 29.582 10.3535C29.418 10.0846 29.1491 9.87956 28.7754 9.73828C28.4062 9.59245 27.9118 9.51953 27.292 9.51953H25.3164Z" fill="black"/>
<path d="M34.1758 14.25H33.0342V3.61328H34.1758V14.25Z" fill="black"/>
<path d="M42.7617 6.75781V14.25H41.832L41.668 13.1973H41.6064C41.4515 13.457 41.251 13.6758 41.0049 13.8535C40.7588 14.0312 40.4808 14.1634 40.1709 14.25C39.8656 14.3411 39.5397 14.3867 39.1934 14.3867C38.6009 14.3867 38.1042 14.291 37.7031 14.0996C37.3021 13.9082 36.999 13.612 36.7939 13.2109C36.5934 12.8099 36.4932 12.2949 36.4932 11.666V6.75781H37.6416V11.584C37.6416 12.2083 37.7829 12.6755 38.0654 12.9854C38.348 13.2907 38.7786 13.4434 39.3574 13.4434C39.9134 13.4434 40.3555 13.3385 40.6836 13.1289C41.0163 12.9193 41.2555 12.6117 41.4014 12.2061C41.5472 11.7959 41.6201 11.2946 41.6201 10.7021V6.75781H42.7617Z" fill="black"/>
<path d="M48.0459 6.62109C48.6839 6.62109 49.2308 6.76237 49.6865 7.04492C50.1423 7.32747 50.4909 7.72396 50.7324 8.23438C50.974 8.74023 51.0947 9.33268 51.0947 10.0117V10.7158H45.9199C45.9336 11.5954 46.1523 12.2653 46.5762 12.7256C47 13.1859 47.597 13.416 48.3672 13.416C48.8411 13.416 49.2604 13.3727 49.625 13.2861C49.9896 13.1995 50.3678 13.0719 50.7598 12.9033V13.9014C50.3815 14.07 50.0055 14.193 49.6318 14.2705C49.2627 14.348 48.8252 14.3867 48.3193 14.3867C47.5993 14.3867 46.9704 14.2409 46.4326 13.9492C45.8994 13.653 45.4847 13.2201 45.1885 12.6504C44.8923 12.0807 44.7441 11.3835 44.7441 10.5586C44.7441 9.75195 44.8786 9.05469 45.1475 8.4668C45.4209 7.87435 45.8037 7.41862 46.2959 7.09961C46.7926 6.7806 47.376 6.62109 48.0459 6.62109ZM48.0322 7.55078C47.4261 7.55078 46.943 7.74902 46.583 8.14551C46.223 8.54199 46.0088 9.0957 45.9404 9.80664H49.9053C49.9007 9.36003 49.8301 8.9681 49.6934 8.63086C49.5612 8.28906 49.3584 8.02474 49.085 7.83789C48.8115 7.64648 48.4606 7.55078 48.0322 7.55078Z" fill="black"/>
<rect x="75.0947" y="2" width="16" height="16" rx="3" fill="#1E71F6"/>
<path d="M86.5746 5.34229C86.8354 4.98299 87.3542 4.89197 87.7334 5.13899C88.1127 5.386 88.2088 5.87751 87.948 6.2368L81.837 14.6578C81.503 15.118 80.784 15.1132 80.457 14.6485L78.2348 11.4906C77.9795 11.1278 78.083 10.6376 78.4659 10.3958C78.8488 10.1539 79.3662 10.252 79.6215 10.6147L81.1609 12.8024L86.5746 5.34229Z" fill="white"/>
<path d="M103.012 9.2666L105.671 4.25586H106.922L103.593 10.374V14.25H102.431V10.4287L99.0947 4.25586H100.366L103.012 9.2666Z" fill="black"/>
<path d="M111.01 6.62109C111.648 6.62109 112.195 6.76237 112.65 7.04492C113.106 7.32747 113.455 7.72396 113.696 8.23438C113.938 8.74023 114.059 9.33268 114.059 10.0117V10.7158H108.884C108.897 11.5954 109.116 12.2653 109.54 12.7256C109.964 13.1859 110.561 13.416 111.331 13.416C111.805 13.416 112.224 13.3727 112.589 13.2861C112.953 13.1995 113.332 13.0719 113.724 12.9033V13.9014C113.345 14.07 112.969 14.193 112.596 14.2705C112.227 14.348 111.789 14.3867 111.283 14.3867C110.563 14.3867 109.934 14.2409 109.396 13.9492C108.863 13.653 108.449 13.2201 108.152 12.6504C107.856 12.0807 107.708 11.3835 107.708 10.5586C107.708 9.75195 107.842 9.05469 108.111 8.4668C108.385 7.87435 108.768 7.41862 109.26 7.09961C109.757 6.7806 110.34 6.62109 111.01 6.62109ZM110.996 7.55078C110.39 7.55078 109.907 7.74902 109.547 8.14551C109.187 8.54199 108.973 9.0957 108.904 9.80664H112.869C112.865 9.36003 112.794 8.9681 112.657 8.63086C112.525 8.28906 112.322 8.02474 112.049 7.83789C111.775 7.64648 111.424 7.55078 110.996 7.55078Z" fill="black"/>
<path d="M117.128 14.25H115.986V3.61328H117.128V14.25Z" fill="black"/>
<path d="M120.669 14.25H119.527V3.61328H120.669V14.25Z" fill="black"/>
<path d="M129.528 10.4902C129.528 11.1055 129.449 11.6546 129.289 12.1377C129.13 12.6208 128.899 13.0286 128.599 13.3613C128.298 13.694 127.933 13.9492 127.505 14.127C127.081 14.3001 126.6 14.3867 126.062 14.3867C125.561 14.3867 125.101 14.3001 124.682 14.127C124.267 13.9492 123.907 13.694 123.602 13.3613C123.301 13.0286 123.066 12.6208 122.897 12.1377C122.733 11.6546 122.651 11.1055 122.651 10.4902C122.651 9.66992 122.79 8.97266 123.068 8.39844C123.346 7.81966 123.743 7.37988 124.258 7.0791C124.777 6.77376 125.395 6.62109 126.11 6.62109C126.794 6.62109 127.391 6.77376 127.901 7.0791C128.416 7.38444 128.815 7.8265 129.098 8.40527C129.385 8.97949 129.528 9.67448 129.528 10.4902ZM123.827 10.4902C123.827 11.0918 123.907 11.6136 124.066 12.0557C124.226 12.4977 124.472 12.8395 124.805 13.0811C125.137 13.3226 125.566 13.4434 126.09 13.4434C126.609 13.4434 127.035 13.3226 127.368 13.0811C127.705 12.8395 127.954 12.4977 128.113 12.0557C128.273 11.6136 128.353 11.0918 128.353 10.4902C128.353 9.89323 128.273 9.37826 128.113 8.94531C127.954 8.50781 127.708 8.17057 127.375 7.93359C127.042 7.69661 126.612 7.57812 126.083 7.57812C125.304 7.57812 124.732 7.83561 124.367 8.35059C124.007 8.86556 123.827 9.57878 123.827 10.4902Z" fill="black"/>
<path d="M137.588 14.2363L136.255 9.875C136.196 9.68815 136.139 9.50586 136.084 9.32812C136.034 9.14583 135.986 8.97266 135.94 8.80859C135.899 8.63997 135.861 8.48503 135.824 8.34375C135.792 8.19792 135.765 8.07259 135.742 7.96777H135.694C135.676 8.07259 135.651 8.19792 135.619 8.34375C135.587 8.48503 135.549 8.63997 135.503 8.80859C135.462 8.97721 135.416 9.15495 135.366 9.3418C135.316 9.52409 135.259 9.70866 135.195 9.89551L133.801 14.2363H132.522L130.458 6.74414H131.634L132.714 10.8799C132.787 11.1533 132.855 11.4245 132.919 11.6934C132.987 11.9577 133.044 12.2083 133.09 12.4453C133.14 12.6777 133.176 12.8805 133.199 13.0537H133.254C133.281 12.9398 133.311 12.8031 133.343 12.6436C133.379 12.484 133.418 12.3154 133.459 12.1377C133.505 11.9554 133.552 11.7754 133.603 11.5977C133.653 11.4154 133.703 11.2445 133.753 11.085L135.134 6.74414H136.357L137.69 11.0781C137.759 11.2969 137.825 11.5247 137.889 11.7617C137.957 11.9987 138.019 12.2288 138.073 12.4521C138.128 12.6709 138.167 12.8669 138.189 13.04H138.244C138.262 12.8851 138.297 12.6937 138.347 12.4658C138.397 12.238 138.454 11.9873 138.518 11.7139C138.586 11.4404 138.657 11.1624 138.729 10.8799L139.823 6.74414H140.979L138.907 14.2363H137.588Z" fill="black"/>
<rect x="164.979" y="2" width="16" height="16" rx="3" fill="#1E71F6"/>
<path d="M176.458 5.34229C176.719 4.98299 177.238 4.89197 177.617 5.13899C177.996 5.386 178.093 5.87751 177.832 6.2368L171.721 14.6578C171.387 15.118 170.668 15.1132 170.341 14.6485L168.119 11.4906C167.863 11.1278 167.967 10.6376 168.35 10.3958C168.733 10.1539 169.25 10.252 169.505 10.6147L171.045 12.8024L176.458 5.34229Z" fill="white"/>
<path d="M198.159 7.3833C198.159 8.15348 198.061 8.85531 197.865 9.48877C197.669 10.1177 197.378 10.66 196.99 11.1157C196.607 11.5669 196.131 11.9155 195.562 12.1616C194.992 12.4077 194.331 12.5308 193.579 12.5308C192.804 12.5308 192.128 12.4077 191.549 12.1616C190.975 11.9155 190.496 11.5646 190.113 11.1089C189.735 10.6532 189.45 10.1086 189.259 9.4751C189.072 8.84163 188.979 8.13981 188.979 7.36963C188.979 6.3488 189.147 5.45329 189.484 4.68311C189.822 3.91292 190.332 3.31364 191.016 2.88525C191.704 2.45687 192.565 2.24268 193.6 2.24268C194.589 2.24268 195.42 2.45459 196.095 2.87842C196.774 3.30225 197.286 3.89925 197.633 4.66943C197.984 5.43506 198.159 6.33968 198.159 7.3833ZM190.202 7.3833C190.202 8.23096 190.323 8.96468 190.564 9.58447C190.806 10.2043 191.175 10.6828 191.672 11.02C192.173 11.3573 192.809 11.5259 193.579 11.5259C194.354 11.5259 194.987 11.3573 195.479 11.02C195.976 10.6828 196.343 10.2043 196.58 9.58447C196.817 8.96468 196.936 8.23096 196.936 7.3833C196.936 6.09359 196.664 5.08643 196.122 4.36182C195.584 3.63265 194.743 3.26807 193.6 3.26807C192.825 3.26807 192.187 3.43441 191.686 3.76709C191.184 4.09977 190.811 4.57373 190.564 5.18896C190.323 5.79964 190.202 6.53109 190.202 7.3833Z" fill="black"/>
<path d="M203.621 4.76514C203.771 4.76514 203.929 4.77425 204.093 4.79248C204.257 4.80615 204.403 4.82666 204.53 4.854L204.387 5.90674C204.264 5.87484 204.127 5.84977 203.977 5.83154C203.826 5.81331 203.685 5.8042 203.553 5.8042C203.252 5.8042 202.967 5.86572 202.698 5.98877C202.434 6.10726 202.201 6.28044 202.001 6.5083C201.8 6.73161 201.643 7.00277 201.529 7.32178C201.415 7.63623 201.358 7.98714 201.358 8.37451V12.394H200.217V4.90186H201.16L201.283 6.28271H201.331C201.486 6.00472 201.673 5.75179 201.892 5.52393C202.11 5.2915 202.363 5.10693 202.65 4.97021C202.942 4.8335 203.266 4.76514 203.621 4.76514Z" fill="black"/>
<path d="M208.748 4.77881C209.641 4.77881 210.304 4.97933 210.737 5.38037C211.17 5.78141 211.387 6.42171 211.387 7.30127V12.394H210.56L210.341 11.2866H210.286C210.076 11.5601 209.858 11.7902 209.63 11.9771C209.402 12.1593 209.138 12.2983 208.837 12.394C208.541 12.4852 208.176 12.5308 207.743 12.5308C207.287 12.5308 206.882 12.451 206.526 12.2915C206.175 12.132 205.897 11.8905 205.692 11.5669C205.492 11.2433 205.392 10.8332 205.392 10.3364C205.392 9.58903 205.688 9.01481 206.28 8.61377C206.873 8.21273 207.775 7.99398 208.987 7.95752L210.279 7.90283V7.44482C210.279 6.79769 210.14 6.34424 209.862 6.08447C209.584 5.82471 209.192 5.69482 208.687 5.69482C208.295 5.69482 207.921 5.75179 207.565 5.86572C207.21 5.97965 206.873 6.1141 206.554 6.26904L206.205 5.40771C206.542 5.23454 206.93 5.08643 207.367 4.96338C207.805 4.84033 208.265 4.77881 208.748 4.77881ZM210.266 8.70264L209.124 8.75049C208.19 8.78695 207.531 8.93962 207.148 9.2085C206.766 9.47738 206.574 9.85791 206.574 10.3501C206.574 10.7785 206.704 11.0952 206.964 11.3003C207.224 11.5054 207.568 11.6079 207.996 11.6079C208.661 11.6079 209.206 11.4233 209.63 11.0542C210.054 10.6851 210.266 10.1313 210.266 9.39307V8.70264Z" fill="black"/>
<path d="M217.272 4.76514C218.161 4.76514 218.833 4.98389 219.289 5.42139C219.745 5.85433 219.973 6.5516 219.973 7.51318V12.394H218.852V7.58838C218.852 6.96403 218.708 6.49691 218.421 6.18701C218.138 5.87712 217.703 5.72217 217.115 5.72217C216.286 5.72217 215.702 5.95687 215.365 6.42627C215.028 6.89567 214.859 7.57699 214.859 8.47021V12.394H213.725V4.90186H214.641L214.812 5.98193H214.873C215.033 5.71761 215.235 5.49658 215.481 5.31885C215.728 5.13656 216.003 4.99984 216.309 4.90869C216.614 4.81299 216.935 4.76514 217.272 4.76514Z" fill="black"/>
<path d="M224.402 15.7573C223.418 15.7573 222.659 15.5728 222.126 15.2036C221.593 14.839 221.326 14.3263 221.326 13.6655C221.326 13.1961 221.474 12.7951 221.771 12.4624C222.071 12.1297 222.486 11.9087 223.015 11.7993C222.819 11.7082 222.65 11.5715 222.509 11.3892C222.372 11.2069 222.304 10.9972 222.304 10.7603C222.304 10.4868 222.379 10.2476 222.529 10.0425C222.684 9.83285 222.919 9.63232 223.233 9.44092C222.841 9.28141 222.522 9.01253 222.276 8.63428C222.035 8.25146 221.914 7.80713 221.914 7.30127C221.914 6.76351 222.026 6.3055 222.249 5.92725C222.472 5.54443 222.796 5.25277 223.22 5.05225C223.644 4.85173 224.156 4.75146 224.758 4.75146C224.89 4.75146 225.022 4.7583 225.154 4.77197C225.291 4.78109 225.421 4.79704 225.544 4.81982C225.667 4.83805 225.774 4.86084 225.865 4.88818H228.436V5.61963L227.055 5.79053C227.191 5.96826 227.305 6.18245 227.396 6.43311C227.488 6.68376 227.533 6.96175 227.533 7.26709C227.533 8.01449 227.28 8.60921 226.774 9.05127C226.269 9.48877 225.574 9.70752 224.689 9.70752C224.48 9.70752 224.266 9.68929 224.047 9.65283C223.824 9.77588 223.653 9.9126 223.534 10.063C223.42 10.2134 223.363 10.3866 223.363 10.5825C223.363 10.7284 223.407 10.8446 223.493 10.9312C223.584 11.0177 223.714 11.0815 223.883 11.1226C224.051 11.159 224.254 11.1772 224.491 11.1772H225.811C226.626 11.1772 227.251 11.3481 227.684 11.6899C228.121 12.0317 228.34 12.5308 228.34 13.187C228.34 14.0164 228.003 14.6522 227.328 15.0942C226.654 15.5363 225.678 15.7573 224.402 15.7573ZM224.437 14.8687C225.056 14.8687 225.569 14.8049 225.975 14.6772C226.385 14.5542 226.69 14.3742 226.891 14.1372C227.096 13.9048 227.198 13.6268 227.198 13.3032C227.198 13.0024 227.13 12.7746 226.993 12.6196C226.856 12.4692 226.656 12.369 226.392 12.3188C226.127 12.2642 225.804 12.2368 225.421 12.2368H224.122C223.785 12.2368 223.491 12.2892 223.24 12.394C222.99 12.4989 222.796 12.6538 222.659 12.8589C222.527 13.064 222.461 13.3192 222.461 13.6245C222.461 14.0301 222.632 14.3377 222.974 14.5474C223.315 14.7616 223.803 14.8687 224.437 14.8687ZM224.73 8.88037C225.273 8.88037 225.681 8.74365 225.954 8.47021C226.228 8.19678 226.364 7.79801 226.364 7.27393C226.364 6.71338 226.225 6.29411 225.947 6.01611C225.669 5.73356 225.259 5.59229 224.717 5.59229C224.197 5.59229 223.796 5.73812 223.514 6.02979C223.236 6.31689 223.097 6.73844 223.097 7.29443C223.097 7.80485 223.238 8.19678 223.521 8.47021C223.803 8.74365 224.206 8.88037 224.73 8.88037Z" fill="black"/>
<path d="M232.797 4.76514C233.435 4.76514 233.982 4.90641 234.438 5.18896C234.893 5.47152 235.242 5.868 235.483 6.37842C235.725 6.88428 235.846 7.47673 235.846 8.15576V8.85986H230.671C230.685 9.73942 230.903 10.4093 231.327 10.8696C231.751 11.3299 232.348 11.5601 233.118 11.5601C233.592 11.5601 234.011 11.5168 234.376 11.4302C234.741 11.3436 235.119 11.216 235.511 11.0474V12.0454C235.132 12.214 234.757 12.3371 234.383 12.4146C234.014 12.492 233.576 12.5308 233.07 12.5308C232.35 12.5308 231.721 12.3849 231.184 12.0933C230.65 11.797 230.236 11.3641 229.939 10.7944C229.643 10.2248 229.495 9.52751 229.495 8.70264C229.495 7.896 229.63 7.19873 229.898 6.61084C230.172 6.01839 230.555 5.56266 231.047 5.24365C231.544 4.92464 232.127 4.76514 232.797 4.76514ZM232.783 5.69482C232.177 5.69482 231.694 5.89307 231.334 6.28955C230.974 6.68604 230.76 7.23975 230.691 7.95068H234.656C234.652 7.50407 234.581 7.11214 234.444 6.7749C234.312 6.43311 234.109 6.16878 233.836 5.98193C233.562 5.79053 233.212 5.69482 232.783 5.69482Z" fill="black"/>
</svg>

<svg width="236" height="18" fill="none" xmlns="http://www.w3.org/2000/svg"><rect x=".15" y="2" width="16" height="16" rx="3" fill="#1E71F6"/><path d="M11.63 5.34a.86.86 0 0 1 1.16-.2c.38.25.48.74.22 1.1L6.9 14.66a.86.86 0 0 1-1.38-.01l-2.23-3.16a.76.76 0 0 1 .24-1.1.86.86 0 0 1 1.15.22l1.54 2.2 5.41-7.47Z" fill="#fff"/><path d="M24.15 4.26h2.83c1.25 0 2.2.18 2.82.56.63.37.94 1 .94 1.9 0 .4-.07.74-.22 1.05-.15.3-.36.56-.64.76-.29.2-.64.34-1.05.42V9c.44.07.82.2 1.16.38a2 2 0 0 1 .8.77c.19.32.28.74.28 1.25a2.58 2.58 0 0 1-1.63 2.52c-.52.21-1.14.32-1.85.32h-3.44v-10Zm1.17 4.28h1.91c.87 0 1.47-.14 1.8-.43.34-.29.51-.7.51-1.26 0-.57-.2-.98-.6-1.23a3.67 3.67 0 0 0-1.9-.37h-1.72v3.3Zm0 .98v3.74h2.07c.9 0 1.52-.17 1.9-.52.36-.35.55-.82.55-1.42 0-.37-.09-.7-.26-.97a1.54 1.54 0 0 0-.8-.61 4.13 4.13 0 0 0-1.49-.22h-1.97Zm8.86 4.73h-1.15V3.61h1.15v10.64Zm8.58-7.49v7.49h-.93l-.16-1.05h-.06a2.2 2.2 0 0 1-.6.65 3.1 3.1 0 0 1-1.82.54c-.59 0-1.09-.1-1.49-.29-.4-.2-.7-.49-.9-.89-.2-.4-.3-.92-.3-1.54V6.76h1.14v4.82c0 .63.14 1.1.43 1.4.28.31.7.46 1.29.46.55 0 1-.1 1.32-.31.34-.21.58-.52.72-.92.15-.41.22-.92.22-1.5V6.75h1.14Zm5.29-.14a2.74 2.74 0 0 1 2.69 1.61c.23.51.35 1.1.35 1.78v.7h-5.17c.01.89.23 1.56.66 2.02a2.3 2.3 0 0 0 1.79.69 5.47 5.47 0 0 0 2.39-.52v1a5.53 5.53 0 0 1-2.44.49 3.9 3.9 0 0 1-1.89-.44c-.53-.3-.95-.73-1.24-1.3a4.5 4.5 0 0 1-.45-2.1 5 5 0 0 1 .4-2.08c.28-.6.66-1.05 1.16-1.37.5-.32 1.08-.48 1.75-.48Zm-.02.93c-.6 0-1.09.2-1.45.6-.36.4-.57.95-.64 1.66h3.97c0-.45-.08-.84-.22-1.18-.13-.34-.33-.6-.6-.8a1.8 1.8 0 0 0-1.06-.28Z" fill="#000"/><rect x="75.09" y="2" width="16" height="16" rx="3" fill="#1E71F6"/><path d="M86.57 5.34a.86.86 0 0 1 1.16-.2c.38.25.48.74.22 1.1l-6.11 8.42a.86.86 0 0 1-1.38-.01l-2.23-3.16a.76.76 0 0 1 .24-1.1.86.86 0 0 1 1.15.22l1.54 2.2 5.41-7.47Z" fill="#fff"/><path d="m103.01 9.27 2.66-5.01h1.25l-3.33 6.11v3.88h-1.16v-3.82L99.1 4.26h1.28l2.64 5Zm8-2.65c.64 0 1.18.14 1.64.42.46.29.8.68 1.05 1.2.24.5.36 1.1.36 1.77v.7h-5.18c.02.89.24 1.56.66 2.02.42.46 1.02.69 1.8.69a5.48 5.48 0 0 0 2.38-.52v1a5.56 5.56 0 0 1-2.44.49 3.9 3.9 0 0 1-1.88-.44c-.54-.3-.95-.73-1.25-1.3a4.5 4.5 0 0 1-.44-2.1 5 5 0 0 1 .4-2.08c.28-.6.66-1.05 1.15-1.37.5-.32 1.08-.48 1.75-.48Zm-.01.93c-.61 0-1.1.2-1.45.6-.36.4-.58.95-.65 1.66h3.97c0-.45-.08-.84-.21-1.18-.13-.34-.34-.6-.61-.8a1.8 1.8 0 0 0-1.05-.28Zm6.13 6.7h-1.14V3.61h1.14v10.64Zm3.54 0h-1.14V3.61h1.14v10.64Zm8.86-3.76c0 .62-.08 1.16-.24 1.65-.16.48-.4.89-.7 1.22-.3.33-.66.59-1.09.77a3.81 3.81 0 0 1-2.82 0 3.11 3.11 0 0 1-1.08-.77c-.3-.33-.53-.74-.7-1.22a5.11 5.11 0 0 1-.25-1.65c0-.82.14-1.52.42-2.1.28-.57.67-1.01 1.19-1.31.52-.3 1.13-.46 1.85-.46.68 0 1.28.15 1.8.46.5.3.9.75 1.19 1.33.28.57.43 1.26.43 2.08Zm-5.7 0c0 .6.08 1.12.24 1.57.16.44.4.78.74 1.02.33.24.76.36 1.28.36s.94-.12 1.28-.36c.33-.24.58-.58.74-1.02.16-.45.24-.97.24-1.57 0-.6-.08-1.11-.24-1.54-.16-.44-.4-.78-.74-1.02a2.18 2.18 0 0 0-1.29-.35c-.78 0-1.35.26-1.71.77a3.69 3.69 0 0 0-.54 2.14Zm13.76 3.75-1.34-4.37a99.57 99.57 0 0 1-.31-1.06l-.12-.47-.08-.37h-.05a8.53 8.53 0 0 1-.19.84 24.15 24.15 0 0 1-.3 1.09l-1.4 4.34h-1.28l-2.06-7.5h1.17l1.08 4.14a30.76 30.76 0 0 1 .49 2.17h.05l.1-.4.1-.51a17.3 17.3 0 0 1 .3-1.05l1.38-4.35h1.23l1.33 4.34a17.09 17.09 0 0 1 .5 1.96h.05l.1-.57.18-.76.2-.83 1.1-4.14h1.16l-2.07 7.5h-1.32Z" fill="#000"/><rect x="164.98" y="2" width="16" height="16" rx="3" fill="#1E71F6"/><path d="M176.46 5.34a.86.86 0 0 1 1.16-.2c.38.25.47.74.21 1.1l-6.1 8.42a.86.86 0 0 1-1.39-.01l-2.22-3.16a.76.76 0 0 1 .23-1.1.86.86 0 0 1 1.16.22l1.53 2.2 5.42-7.47Z" fill="#fff"/><path d="M198.16 7.38c0 .77-.1 1.48-.3 2.1a4.6 4.6 0 0 1-.87 1.64c-.38.45-.86.8-1.43 1.04a4.9 4.9 0 0 1-1.98.37c-.78 0-1.45-.12-2.03-.37a3.8 3.8 0 0 1-1.44-1.05 4.6 4.6 0 0 1-.85-1.63 7.42 7.42 0 0 1-.28-2.11c0-1.02.17-1.92.5-2.69.34-.77.85-1.37 1.54-1.8a4.8 4.8 0 0 1 2.58-.64c.99 0 1.82.21 2.5.64a3.95 3.95 0 0 1 1.53 1.79c.35.77.53 1.67.53 2.71Zm-7.96 0c0 .85.12 1.58.36 2.2a3 3 0 0 0 1.11 1.44c.5.34 1.14.5 1.9.5.78 0 1.42-.16 1.9-.5a3 3 0 0 0 1.11-1.44c.24-.62.36-1.35.36-2.2 0-1.29-.28-2.3-.82-3.02-.54-.73-1.38-1.1-2.52-1.1a3.4 3.4 0 0 0-1.91.5c-.5.34-.88.81-1.13 1.43a5.98 5.98 0 0 0-.36 2.2Zm13.42-2.61a4.29 4.29 0 0 1 .91.08l-.14 1.06a3.16 3.16 0 0 0-.84-.1 2.03 2.03 0 0 0-1.55.7c-.2.22-.36.5-.47.81-.12.32-.17.67-.17 1.05v4.02h-1.14V4.9h.94l.12 1.38h.05c.16-.28.34-.53.56-.76a2.26 2.26 0 0 1 1.73-.76Zm5.13.01c.9 0 1.55.2 1.99.6.43.4.65 1.04.65 1.92v5.1h-.83l-.22-1.11h-.05c-.21.27-.43.5-.66.69-.23.18-.5.32-.8.41a3.76 3.76 0 0 1-2.3-.1 1.9 1.9 0 0 1-.84-.72 2.3 2.3 0 0 1-.3-1.23c0-.75.3-1.33.89-1.73.6-.4 1.5-.62 2.7-.65l1.3-.06v-.46c0-.64-.14-1.1-.42-1.36a1.66 1.66 0 0 0-1.17-.39c-.4 0-.77.06-1.13.18-.35.11-.69.24-1 .4l-.35-.86a5.22 5.22 0 0 1 2.54-.63Zm1.52 3.92-1.15.05c-.93.04-1.59.19-1.97.46-.38.27-.58.65-.58 1.14 0 .43.13.75.4.95.25.2.6.3 1.03.3a2.4 2.4 0 0 0 1.63-.55c.42-.36.64-.92.64-1.66V8.7Zm7-3.93c.9 0 1.56.21 2.02.65.46.43.68 1.13.68 2.1v4.87h-1.12V7.6c0-.63-.14-1.1-.43-1.4-.28-.31-.72-.47-1.3-.47-.83 0-1.42.24-1.75.7a3.5 3.5 0 0 0-.51 2.05v3.92h-1.14V4.9h.92l.17 1.08h.06c.16-.26.37-.48.61-.66a3.2 3.2 0 0 1 1.8-.55Zm7.13 10.99c-.98 0-1.74-.19-2.27-.56-.54-.36-.8-.87-.8-1.53 0-.47.14-.87.44-1.2.3-.34.72-.56 1.24-.67-.2-.1-.36-.23-.5-.41a1 1 0 0 1-.2-.63c0-.27.07-.51.22-.72.15-.2.39-.4.7-.6a2.1 2.1 0 0 1-.95-.8 2.45 2.45 0 0 1-.37-1.34c0-.54.12-1 .34-1.37.22-.39.55-.68.97-.88a3.57 3.57 0 0 1 1.93-.28 3.37 3.37 0 0 1 .72.12h2.57v.73l-1.38.17a2.4 2.4 0 0 1 .47 1.48c0 .74-.25 1.34-.76 1.78-.5.44-1.2.66-2.08.66-.21 0-.42-.02-.64-.06-.23.13-.4.26-.52.41a.84.84 0 0 0-.17.52c0 .15.05.26.13.35.1.09.22.15.4.2.16.03.36.05.6.05h1.32c.82 0 1.44.17 1.87.51.44.34.66.84.66 1.5 0 .83-.34 1.46-1.01 1.9a5.3 5.3 0 0 1-2.93.67Zm.04-.9c.62 0 1.13-.06 1.53-.18.41-.13.72-.3.92-.54.2-.24.3-.51.3-.84 0-.3-.06-.53-.2-.68a1.05 1.05 0 0 0-.6-.3 4.9 4.9 0 0 0-.97-.08h-1.3c-.34 0-.63.05-.88.15-.25.1-.44.26-.58.47-.13.2-.2.46-.2.76 0 .41.17.72.51.93.34.21.83.32 1.47.32Zm.29-5.98c.54 0 .95-.14 1.22-.41.28-.27.41-.67.41-1.2 0-.56-.14-.98-.41-1.25-.28-.29-.7-.43-1.23-.43-.52 0-.92.15-1.2.44-.28.29-.42.7-.42 1.26 0 .51.14.9.42 1.18.28.27.69.41 1.21.41Zm8.07-4.11a2.74 2.74 0 0 1 2.69 1.61c.23.5.36 1.1.36 1.78v.7h-5.18c.02.88.23 1.55.66 2.01a2.3 2.3 0 0 0 1.79.69 5.48 5.48 0 0 0 2.4-.51v1a5.54 5.54 0 0 1-2.45.48 3.9 3.9 0 0 1-1.89-.44c-.53-.3-.94-.73-1.24-1.3a4.5 4.5 0 0 1-.44-2.09 5 5 0 0 1 .4-2.09c.27-.6.66-1.05 1.15-1.37.5-.32 1.08-.47 1.75-.47Zm-.02.92c-.6 0-1.09.2-1.45.6-.36.4-.57.95-.64 1.66h3.97c0-.45-.08-.84-.22-1.18-.13-.34-.33-.6-.6-.79a1.8 1.8 0 0 0-1.06-.29Z" fill="#000"/></svg>
